X:1
T:O Traurigkeit, 44.776
T:O Traurigkeit, 44.776
T:Anonymous (Mainz, German
T:Public Domain Courtesy of the Cyber Hymnal™
C:Anonymous (Mainz, German
Z:Public Domain
Z:Courtesy of the Cyber Hymnal™
%%score ( 1 2 ) ( 3 4 )
L:1/8
Q:1/4=110
M:none
K:Ab
V:1 treble 
V:2 treble 
V:3 bass 
V:4 bass 
V:1
 z2 [Cc]2 [CA]2 F2 | [=EG]4 z2 [CE]2 [B,F]2 [DF]2 | [C=E]4 z2 [Cc]2 | [Gc]2 [Fc]2 [Fd]2 [Ec]2 | %4
 B4 [CA]4 | [EG]2 [CA]2 [EB]2 [Ec]2 | [FB]2 [FA]2 [=EG]4 | F2 [=EG]2 [FA]2 [FB]2 | G4 F4 |] %9
V:2
 x6 F2 | x12 | x8 | x8 | (E3 D) x4 | x8 | x8 | F2 x6 | (F2 =E2) F4 |] %9
V:3
 z2 [=E,G,]2 F,2 [D,A,]2 | [C,C]4 z2 [C,G,]2 [D,F,]2 [B,,B,]2 | [C,G,]4 z2 [F,A,]2 | %3
 [=E,G,]2 [F,A,]2 [D,A,]2 [A,,A,]2 | (A,2 G,2) [A,,A,]4 | [E,B,]2 [F,A,]2 [E,G,]2 [C,A,]2 | %6
 [D,D]2 [F,C]2 [C,C]4 | [D,A,]2 [C,C]2 [F,C]2 [B,,D]2 | [C,C]4 [F,A,]4 |] %9
V:4
 x4 F,2 x2 | x12 | x8 | x8 | E,4 x4 | x8 | x8 | x8 | x8 |] %9

